X:1
T:There Is None Righteous
T:There Is None Righteous
T:James McGranahan
T:James McGranahan, 1887
T:Public Domain Courtesy of the Cyber Hymnal™
T:Public Domain Courtesy of the Cyber Hymnal™
C:James McGranahan
Z:Public Domain
Z:Courtesy of the Cyber Hymnal™
%%score ( 1 2 ) ( 3 4 )
L:1/8
Q:1/4=104
M:4/4
K:A
V:1 treble 
V:2 treble 
V:3 bass 
V:4 bass 
V:1
 E2 | [EA]3 [DB] [CA]2 [DF]2 | [CE]>[DF] [CE]>[B,D] [A,C]2 [CE]2 | [Ec]3 [Ec] [DB]2 [CA]2 | %4
w: 1.~A|guilt- y soul, by|Phar- i- sees of old, Was|brought ac- cused, a-|
w: 2.~A|learn- èd mas- ter,|rul- er of the Jews, God’s|king- dom could not|
w: 3.~“Good|Mas- ter,” pray can|aught be lack- ing yet? Thy|laws I do o-|
 [EB]6 [EB]2 | [EB]3 [Ec] [EB]2 [EA]2 | [EG]>[^DF] [EG]>[FA] [GB]2 [Ac]2 | %7
w: lone, But|Je- sus said, “Let|him with- out a sin Be|
w: gain, With|all the lore and|cul- ture of the age, He|
w: bey; “Go,|sell and give, then|come and fol- low Me,” But|
 [GB]2 [FA]2 [EG]2 [^DF]2 | E6 ||"^Refrain" z E | [Ec]2 [DB]2 [CA]2 E2 | [DG]2 [DF]2 [CE]2 z2 | %12
w: first to cast a|stone.”||||
w: “must be born a-|gain.”|“There|is none right- eous,|no not one,|
w: sad he turned a-|way.||||
 [CF]4 [EF]2 [EF]2 x8 | d6 z [Fd] | [Fd]2 [Ec]2 [DB]2 FF | [EB]2 [^DA]2 [EG]2 EE | %16
w: ||||
w: All, all have|sinned.” There|is none right- eous, For|all have sinned, And come|
w: ||||
 E2 EE (EG)B[Bd] | ([Bd][Ac])[Ac][Ac] [Ac]2 [=Gc]2 | [Fd]2 [DF]>[DF] [DF][DF] [Fd]2 | %19
w: |||
w: short of the glo- * ry, The|glo- * ry of God, Come|short of the glo- ry, Come|
w: |||
 [Ec]2 [CE]>[CE] [CE][CE][EA][Ac] | ([ce]2 [Bd][^Ac] [Bd]2) [GB][EG] | A6 [EA]2 |] %22
w: |||
w: short of the glo- ry, Of the|glo- * * * ry of|God. *|
w: |||
V:2
 E2 | x8 | x8 | x8 | x8 | x8 | x8 | x8 | E6 || x E | x6 E2 | x8 | x16 | (D2 F2 F2) x2 | x6 FF | %15
 x6 EE | E2 EE EGB x | x8 | x8 | x8 | x8 | ECFF x4 |] %22
V:3
 E,2 | [A,,C]3 [A,,A,] [A,,E,]2 [A,,A,]2 | [A,,A,]>[A,,A,] [A,,A,]>[A,,E,] [A,,E,]2 [A,,A,]2 | %3
 [A,,A,]3 [C,A,] [E,G,]2 [F,A,]2 | [E,G,]6 [E,G,]2 | [E,G,]3 [E,A,] [E,G,]2 [E,C]2 | %6
 [E,B,]>[E,B,] [E,B,]>[E,B,] [E,E]2 [A,,E]2 | [B,,E]2 [B,,B,]2 [B,,B,]2 [B,,B,]2 | [E,G,]6 || %9
 z [E,G,] | A,2 [E,G,]2 [F,A,]2 [C,A,]2 | [D,A,]2 [D,A,]2 [A,,A,]2 z2 | %12
 [F,^A,]4 [F,A,]2 [F,A,]2 ([B,,B,]2 [B,,B,]2 [B,,B,]2) z [B,,B,] | %13
 [B,,B,]2 [C,^A,]2 [D,B,]2 [^D,=A,][D,A,] | [E,G,]2 [B,,F,]2 E,2 E,E, | E,2 E,E, E,G,B,[G,E] | %16
 [A,E]2 [B,,E][D,E] [A,E]2 z2 | z2 [D,A,]>[D,A,] [D,A,][D,A,] z2 | %18
 z2 [A,,A,]>[A,,A,] [A,,A,]-[A,,A,][A,C][A,E] | E4 (ED)[E,D][E,D] | (CA,DD [A,,C]2) x2 | x8 |] %22
V:4
 E,2 | x8 | x8 | x8 | x8 | x8 | x8 | x8 | x6 || x2 | A,2 x6 | x8 | x16 | x8 | x4 E,2 E,E, | %15
 E,2 E,E, (E,G,)B, x | x8 | x8 | x8 | (A,2 E,F, B,,2) x2 | A,,6 x2 | x8 |] %22

